X: 40072
T: Thrush In The Storm, The
R: reel
M: 4/4
K: Dmajor
FAAF ABde|fgfe dBBA|dBAF dAAF|EAFE DB, B,D|
FAAF ABde|fgfe dBBA|dBAF ABde|(3fef ag fdd2:|
fedf edBc|defd BAFA|DF ~F2 AF ~F2|fgfd edBd|
~f3d egfe|dfed BAGB|~A2FB ABde|(3fef ag fdd2:|

